X:1
T:Laudate Coeli
T:Orazio Benevoli (1605-1672) arr. for satb BMarble
T:Laudate Coeli
T:Copyright © 2014 by CPDL.  This edition can be fully distributed, duplicated, performed, and recorded 
T:Copyright © 2014 by CPDL.  This edition can be fully distributed, duplicated, performed, and recorded 
T:Copyright © 2014 by CPDL.  This edition can be fully distributed, duplicated, performed, and recorded 
T:Copyright © 2014 by CPDL.  This edition can be fully distributed, duplicated, performed, and recorded 
T:Copyright © 2014 by CPDL.  This edition can be fully distributed, duplicated, performed, and recorded 
T:Copyright © 2014 by CPDL.  This edition can be fully distributed, duplicated, performed, and recorded 
T:Copyright © 2014 by CPDL.  This edition can be fully distributed, duplicated, performed, and recorded 
T:Copyright © 2014 by CPDL.  This edition can be fully distributed, duplicated, performed, and recorded 
T:Copyright © 2014 by CPDL.  This edition can be fully distributed, duplicated, performed, and recorded 
C:Orazio Benevoli (1605-1672)
C:arr. for satb BMarble
Z:Copyright © 2014 by CPDL.  This edition can be fully distributed, duplicated, performed, and recorded
%%score [ 1 2 3 4 ]
L:1/8
Q:1/2=112
M:4/2
K:G
V:1 treble nm="SOPRANO" snm="S."
V:2 treble nm="ALTO" snm="A."
V:3 treble-8 transpose=-12 nm="TENOR" snm="T."
V:4 bass nm="BASS" snm="B."
V:1
 G8 G4 G4 | (d6 c2 B2 A2 B4-) | B4 (A2 G2 A8) | D6 E2 F4 G4- | G2 F2 F2 ED E8 | G8 z4 G4 | %6
w: Lau- da- te-|coe- * * * *|* li, _ _|coe- * * *||li, lau-|
 G4 G4 (d2 c2 B2 A2 | G8) F8 | B6 A2 B2 c2 d4- | d2 c2 B2 A2 B8 | A8 B6 B2 | B4 B4 B4 G4 | A12 G4 | %13
w: da- te- coe- * * *|* li,|coe- * * * *||li,- quo- ni-|am- mi- se- ri-|cor- di-|
 G4 c6 B2 A2 G2 | F4 G4 G4 F4 | G8 A6 A2 | A4 A4 B4 A4 | c12 B4 | B4 B6 A2 G2 F2 | E4 G4 A6 G2 | %20
w: am- fe- * * *|* cit Do- mi-|nus,- quo- ni-|am- mi- se- ri-|cor- di-|am- fe- * * *|* cit- Do- mi-|
 F4 A8 A4 | B2 A2 B2 c2 B2 A2 G2 F2 | E8 E8 | z4 G4 (A6 B2 | c4) c4 c8 | c8 z4 G4- | %26
w: nus:- ju- bi-|la- * * * * * * *|* te-|ex- tre- *|* ma- ter-|rae;- re-|
 G2 A2 B2 c2 d4 d4 | D2 E2 F2 G2 (A2 G2 F4) | E8 z4 F4 | F6 D2 G8 | F4 B4 B6 G2 | c8 B8 | %32
w: * so- na- te- mon- tes,-|re- so- na- te- mon- * *|tes- lau-|da- ti- o-|nem,- lau- da- ti-|o- nem,-|
 z4 G6 A2 B2 c2 | d8 d4 G4 | B6 c2 A8 | G8 A8 | A8 B8 | d8 A8 | c8 B8 | A16 | B4 E6 F2 =G4- | %41
w: re- so- na- te-|mon- tes- lau-|da- ti- o-|nem:- sal-|tus- et-|o- mne-|li- gnum-|e-|ius,- quo- ni- am|
 G4 G4 G4 G4 | G4 F4 G8 | z8 z4 c4- | c4 c4 B8- | B16 | z4 E4 G4 G4 | A6 G2 F4 E4 || %48
w: _ re- de- mit-|Do- mi- nus-|quo-|* ni- am|_|re- de- mit-|Do- mi- nus- Si-|
[M:3/2][Q:1/2=96] F8 A4 | B6 B2 B4 | c6 B2 G2 A2 | B2 A2 G2 F2 E4 | G8 F4 | G8 B4 | A6 A2 A4 | %55
w: on,- et-|Is- ra- el-|glo- * * *|* * ri- * *|a bi-|tur,- et-|Is- ra- el-|
 B2 c2 d2 c2 B4 | A4 B6 A2 | F2 G2 A6 A2 | A8 F4 | G8 G4 |"^rit." F4 D8 | D4 A6 A2 | %62
w: glo- * * * *|* ri- *|* * a- bi-|tur,- et-|Is- ra-|el glo-|ri- a- bi-|
 !fermata!F12 ||[M:4/2][Q:1/2=112] G8 G8 | (d6 c2 B2 A2 B4-) | B4 (A2 G2 A8) | (D6 E2 F4) G4- | %67
w: tur.-|Al- le-|lu- * * * *|* ia, _ _|al- * * le-|
 (G2 F2) (F2 ED E8) | G8 z4 G4- | G4 G4 (d2 c2 B2 A2 | G8) F8 | B6 A2 B2 c2 d4- | d2 c2 B2 A2 B8 | %73
w: * * lu- * * *|ia, al-|* le- lu- * * *|* ia,|al- * * * *|* * le- * lu-|
 A8 B6 B2 | B8 B4 G4 | A12 G4 |"^rit." G4 c6 B2 A2 G2 | F4 G8 F4 | G16 |] %79
w: ia, al- le-|lu- ia,- al-|le- lu-|ia,- al- * * *|* le- lu-|ia.-|
V:2
 z16 | D8 D4 D4 | G12 F2 E2 | F6 E2 D2 C2 B,2 A,2 | G,2 A,2 B,4 A,8 | B,4 G,4 G,4 G,4 | %6
w: |Lau- da- te-|coe- * *|||li,- lau- da- te-|
 D6 C2 B,2 A,2 B,4- | B,4 A,2 G,2 A,8 | D8 z4 D4 | D4 D4 G8 | F8 G6 G2 | G4 G4 G4 D4 | =F12 E4 | %13
w: coe- * * * *||li, lau-|da- te- coe-|li,- quo- ni-|am- mi- se- ri-|cor- di-|
 E4 G6 ^F2 E4 | D4 B,2 C2 D6 D2 | D8 D6 D2 | D4 F4 F4 F4 | G12 G4 | G4 G6 F2 E2 D2 | C4 D4 E4 E4 | %20
w: am- fe- * *|* cit- * Do- mi-|nus,- quo- ni-|am- mi- se- ri-|cor- di-|am- fe- * * *|* cit- Do- mi-|
 D4 F8 F4 | G4 D4 D4 E4 | E2 D2 C2 B,2 C2 D2 E4 | C4 E4 C8- | C4 A,4 A8 | G4 C2 D2 E2 F2 G4 | %26
w: nus:- ju- bi-|la- te, ju- bi-|la- * * * * * *|te ex- tre-|* ma- ter-|rae;- re- so- na- te- mon-|
 D8 D6 E2 | F2 G2 A4 D4 A,4- | A,2 B,2 C2 D2 E4 D4 | D4 D6 B,2 ^C4 | D4 B,4 D6 E2 | %31
w: tes,- re- so-|na- te- mon- tes, re-|* so- na- te- mon- tes-|lau- da- ti- o-|nem,- lau- da- ti-|
 (C4 A,4) D4 B,4- | B,2 A,2 G,2 A,2 B,8 | B,4 B,4 (D6 E2 | F4) G8 F4 | G4 (G8 F2 E2 | F8) G4 G4- | %37
w: o- * nem, re-|* so- na- te- mon-|tes- lau- da- *|* ti- o-|nem:- sal- * *|* tus- et|
 G4 F8 F4 | E8 E8 | E16 | E8 z4 E4- | E4 E4 D8- | D8 z8 | z8 E8- | E4 C4 G8- | G4 G4 F4 F4 | %46
w: _ o- mne-|li- gnum-|e-|ius,- quo-|* ni- am,|_|quo-|* ni- am|_ re- de- mit-|
 (G6 F2 E4) D4 | ^C4 (D8 C4) ||[M:3/2] D8 F4 | G6 G2 G4 | G6 F2 E4 | D4 E6 D2 | B,2 C2 D6 D2 | %53
w: Do- * * mi-|nus- Si- *|on,- et-|Is- ra- el-|glo- * *|* ri- *|* * a- bi-|
 D8 G4 | F6 F2 F4 | B,6 C2 D2 E2 | F4 (G6 F2 | D4) E4 E4 | F8 D4 | D8 D4 | D8 B,4 | D4 D4 ^C4 | %62
w: tur,- et-|Is- ra- el-|glo- * * *|* ri- *|* a- bi-|tur,- et-|Is- ra-|el- glo-|ri- a- bi-|
 !fermata!D12 ||[M:4/2] z16 | D8 D8 | G12 F2 E2 | F6 E2 D2 C2 B,2 A,2 | G,2 A,2 B,4 (A,8 | %68
w: tur.-||Al- le-|lu- * *||* * * ia,|
 B,4) G,8 G,4 | D6 C2 B,2 A,2 B,4- | B,4 A,2 G,2 A,8 | D8 z4 D4- | D4 D4 G8 | F8 G6 G2 | G8 G4 D4 | %75
w: _ al- le-|lu- * * * *||ia, al-|* le- lu-|ia, al- le-|lu- ia,- al-|
 =F12 E4 | E4 G6 ^F2 E4 | D4 B,2 C2 D8 | B,16 |] %79
w: le- lu-|ia,- al- * *|* le- * lu-|ia.-|
V:3
 z16 | z8 G8 | G4 G4 d6 c2 | B2 A2 B6 A2 G2 A2 | B2 c2 d8 ^c4 | (d6 =c2 B8-) | B4 G4 G4 G4 | %7
w: |Lau-|da- te- coe- *|||li, _ _|_ lau- da- te-|
 d8 d4 F4 | F4 F4 B6 A2 | B2 A2 G2 F2 G8 | D4 d8 d4 | d4 d4 e4 B4 | c12 c4 | c4 e6 d2 c2 B2 | %14
w: coe- li,- lau-|da- te- coe- *||li,- quo- ni-|am- mi- se- ri-|cor- di-|am- fe- * * *|
 A4 G4 A4 A4 | B4 G8 F4 | F4 D4 d4 d4 | e12 d4- | d6 d2 d4 e4- | e4 d4 d4 ^c4 | d8 z8 | z4 B8 B4 | %22
w: * cit Do- mi-|nus,- quo- ni-|am- mi- se- ri-|cor- *|* di- am- fe-|* cit- Do- mi-|nus:-|ju- bi-|
 c2 B2 c2 d2 e2 d2 c2 B2 | A4 c4 A8- | A4 =F4 F8 | E4 e6 d2 c2 c2 | B4 B4 G2 A2 B2 c2 | %27
w: la- * * * * * * *|te ex- tre-|* ma ter-|rae,- re- so- na- te|mon- tes, re- so- na- te-|
 d4 d4 A6 B2 | c2 d2 e4 c4 A4 | A6 B2 G8 | A4 G4 F2 D2 G4- | (G2 FE F4) G4 G4- | G2 A2 B2 c2 d8 | %33
w: mon- tes, re- so-|na- te- mon- tes- lau-|da- ti- o-|nem,- lau- da- ti- o-|* * * * nem, re-|* so- na- te- mon-|
 d4 G4 (B6 c2 | d4) e4 c4 d4 | B8 (d6 cB | A8) d8 | A12 A4 | A4 A6 ^G2 G4 | (c6 B2 A8) | %40
w: tes- lau- da- *|* ti- o- nem:-|sal- tus _ _|_ et-|o- mne-|li- gnum _ _|e- * *|
 ^G8 z4 B4- | B4 B4 B4 B4 | B4 A4 c6 B2 | A4 d4 (c6 B2 | A4) e8 e4 | B4 B4 d4 d4 | e6 d2 c4 B4 | %47
w: ius,- quo-|* ni- am- re-|de- mit- Do- mi-|nus Si- on, _|_ quo- ni-|am- re- de- mit-|Do- mi- nus- Si-|
 A16- ||[M:3/2] A4 z4 d4 | d6 d2 d4 | e6 d2 c4 | B4 c6 B2 | G4 A6 A2 | G8 G4 | D6 D2 D4 | %55
w: on,|_ et-|Is- ra- el-|glo- * *|* ri- *|* a- bi-|tur,- et-|Is- ra- el-|
 G6 A2 B2 c2 | d2 c2 B2 A2 G4 | d8 ^c4 | d4 A8 | B8 B4 | A4 B8 | G4 E6 A2 | !fermata!A12 || %63
w: glo- * * *|* * ri- * *|a- bi-|tur,- et|Is- ra-|el- glo-|ri- a- bi-|tur.-|
[M:4/2] z16 | z8 G8 | G8 d6 c2 | B2 A2 B6 A2 G2 A2 | B2 c2 d8 ^c4 | (d6 =c2 B8-) | B4 G8 G4 | %70
w: |Al-|le- lu- *|||ia, _ _|_ al- le-|
 d8 d4 F4- | F4 F4 B6 A2 | B2 A2 G2 F2 G8 | D4 d8 d4 | B16 | A8 c4 c4 | c4 (e6 d2) (c2 B2 | %77
w: lu- ia, al-|* le- lu- *||ia, al- le-|lu-|ia,- al- le-|lu- ia, _ al- *|
 A4) G4 A8 | G16 |] %79
w: * le- lu-|ia.-|
V:4
 z16 | z16 | z16 | z16 | z16 | z16 | z8 G,,8 | G,,4 G,,4 D,6 C,2 | B,,2 A,,2 B,,6 A,,2 G,,2 F,,2 | %9
w: ||||||Lau-|da- te- coe- *||
 G,,16 | D,8 G,6 G,2 | G,4 G,4 E,4 G,4 | =F,12 C,4 | C,16 | D,4 E,4 D,6 D,2 | G,,8 D,6 D,2 | %16
w: |li,- quo- ni-|am- mi- se- ri-|cor- di-|am-|fe- cit- Do- mi-|nus,- quo- ni-|
 D,4 D4 B,4 D4 | C12 G,4 | G,16 | A,4 B,4 A,4 A,4 | D,4 D,8 D,4 | G,2 F,2 G,2 A,2 G,2 F,2 E,2 D,2 | %22
w: am mi- se- ri-|cor- di-|am-|fe- cit- Do- mi-|nus: ju- bi-|la- * * * * * * *|
 C,8 C,8 | C,8 =F,,8- | F,,4 =F,,4 F,,8 | C,4 C,6 D,2 E,2 F,2 | G,8 G,8 | z4 D,6 E,2 F,2 G,2 | %28
w: * te-|ex- tre-|* ma ter-|rae;- re- so- na- te-|mon- tes,-|re- so- na- te-|
 A,8 A,4 D,4 | F,6 G,2 E,8 | D,4 G,,4 B,,6 C,2 | A,,8 G,,8- | G,,16- | G,,8 z8 | z16 | G,8 D,8- | %36
w: mon- tes- lau-|da- ti- o-|nem,- lau- da- ti-|o- nem:|_|||sal- tus|
 D,8 G,,8 | D,12 D,4 | A,,8 E,8 | A,,16 | E,8 z4 E,4- | E,4 E,4 B,,4 B,,4 | D,4 D,4 E,6 D,2 | %43
w: _ et-|o- mne-|li- gnum-|e-|ius,- quo-|* ni- am- re-|de- mit Do- mi-|
 C,4 B,,4 A,,4 A,4- | A,4 A,4 E,8- | E,8 z8 | z16 | z4 (D,2 E,2 F,2 G,2 A,4) ||[M:3/2] D,8 D,4 | %49
w: nus- Si- on,- quo-|* ni- am,|_||Si- * * * *|on, et|
 G,6 G,2 G,4 | C,6 D,2 E,2 F,2 | G,2 F,2 E,2 D,2 C,4 | E,4 D,6 D,2 | G,,8 z4 | z12 | z12 | z12 | %57
w: Is- ra- el-|glo- * * *||ri- a- bi-|tur,-||||
 z8 A,,4 | D,6 D,2 D,4 | G,,6 A,,2 B,,2 C,2 | D,2 C,2 B,,2 A,,2 G,,4 | B,,4 A,,4 A,,4 | %62
w: et-|Is- ra- el-|glo- * * *||ri- a- bi-|
 !fermata!D,12 ||[M:4/2] z16 | z16 | z16 | z16 | z16 | z16 | z8 G,,8 | G,,8 D,6 C,2 | %71
w: tur.-|||||||Al-|le- lu- *|
 B,,2 A,,2 B,,6 A,,2 G,,2 F,,2 | G,,16 | D,8 G,6 G,2 | G,8 E,4 G,4 | =F,12 C,4 | C,16 | %77
w: ||ia, al- le-|lu- ia,- al-|le- lu-|ia,-|
 D,4 E,4 D,8 | G,,16 |] %79
w: al- le- lu-|ia.-|

